icons/svg/format-indent-increase.svg

<svg xmlns="http://www.w3.org/2000/svg" version="1.1" baseProfile="full" width="24" height="24" viewBox="0 0 24.00 24.00" xml:space="preserve"><path fill="#000" fill-opacity="1" stroke-linejoin="round" d="M11 13h10v-2H11m0-2h10V7H11M3 3v2h18V3M11 17h10v-2H11M3 8v8l4-4m-4 9h18v-2H3v2z"/></svg>

﻿<?xml version="1.0" encoding="utf-8"?>
<!DOCTYPE svg PUBLIC "-//W3C//DTD SVG 1.1//EN" "http://www.w3.org/Graphics/SVG/1.1/DTD/svg11.dtd">
<svg xmlns="http://www.w3.org/2000/svg" xmlns:xlink="http://www.w3.org/1999/xlink" version="1.1" baseProfile="full" width="24" height="24" viewBox="0 0 24.00 24.00" enable-background="new 0 0 24.00 24.00" xml:space="preserve">
	<path fill="#000000" fill-opacity="1" stroke-linejoin="round" d="M 11,13L 21,13L 21,11L 11,11M 11,9L 21,9L 21,7L 11,7M 3,3L 3,5L 21,5L 21,3M 11,17L 21,17L 21,15L 11,15M 3,8L 3,16L 7,12M 3,21L 21,21L 21,19L 3,19L 3,21 Z "/>
</svg>
